src/assets/filled/ProfileTick.svg

<svg width="24" height="24" viewBox="0 0 24 24"  xmlns="http://www.w3.org/2000/svg">
<path d="M12 2C9.38 2 7.25 4.13 7.25 6.75C7.25 9.32 9.26 11.4 11.88 11.49C11.96 11.48 12.04 11.48 12.1 11.49C12.12 11.49 12.13 11.49 12.15 11.49C12.16 11.49 12.16 11.49 12.17 11.49C14.73 11.4 16.74 9.32 16.75 6.75C16.75 4.13 14.62 2 12 2Z" />
<path d="M17.08 14.1601C14.29 12.3001 9.73996 12.3001 6.92996 14.1601C5.65996 15.0001 4.95996 16.1501 4.95996 17.3801C4.95996 18.6101 5.65996 19.7501 6.91996 20.5901C8.31996 21.5301 10.16 22.0001 12 22.0001C13.84 22.0001 15.68 21.5301 17.08 20.5901C18.34 19.7401 19.04 18.6001 19.04 17.3601C19.03 16.1401 18.34 14.9901 17.08 14.1601ZM14.33 16.5601L11.81 19.0801C11.69 19.2001 11.53 19.2601 11.37 19.2601C11.21 19.2601 11.05 19.1901 10.93 19.0801L9.66996 17.8201C9.42996 17.5801 9.42996 17.1801 9.66996 16.9401C9.90996 16.7001 10.31 16.7001 10.55 16.9401L11.37 17.7601L13.45 15.6801C13.69 15.4401 14.09 15.4401 14.33 15.6801C14.58 15.9201 14.58 16.3201 14.33 16.5601Z" />
</svg>

<?xml version="1.0" encoding="UTF-8"?>
<svg width="24" height="24" viewBox="0 0 24 24" xmlns="http://www.w3.org/2000/svg">
 <path d="m12 2c-2.62 0-4.75 2.13-4.75 4.75 0 2.57 2.01 4.65 4.63 4.74 0.08-0.01 0.16-0.01 0.22 0h0.05 0.02c2.56-0.09 4.57-2.17 4.58-4.74 0-2.62-2.13-4.75-4.75-4.75z"/>
 <path d="m17.08 14.16c-2.79-1.86-7.34-1.86-10.15 0-1.27 0.84-1.97 1.99-1.97 3.22s0.7 2.37 1.96 3.21c1.4 0.94 3.24 1.41 5.08 1.41s3.68-0.47 5.08-1.41c1.26-0.85 1.96-1.99 1.96-3.23-0.01-1.22-0.7-2.37-1.96-3.2zm-2.75 2.4-2.52 2.52c-0.12 0.12-0.28 0.18-0.44 0.18s-0.32-0.07-0.44-0.18l-1.26-1.26c-0.24-0.24-0.24-0.64 0-0.88s0.64004-0.24 0.88004 0l0.82 0.82 2.08-2.08c0.24-0.24 0.64-0.24 0.88 0 0.25 0.24 0.25 0.64 0 0.88z"/>
</svg>
